X:1
T:Xi’an, 10.10.10.10 D
T:Xi’an, 10.10.10.10 D
T:Henry Southwick Perkins, 1875
T:Public Domain Courtesy of the Cyber Hymnal™
C:Henry Southwick Perkins, 1875
Z:Public Domain
Z:Courtesy of the Cyber Hymnal™
%%score ( 1 2 ) ( 3 4 )
L:1/8
Q:1/4=97
M:4/4
K:F
V:1 treble 
V:2 treble 
V:3 bass 
V:4 bass 
V:1
 [FA]2 [FA]>[F^G] [FA]2 [FA]>[FA] | [Fc]2 [F=B]>[Fc] [FA]3 z | [GB]2 [GB]>[FA] [EG]2 [FA]>[Fd] | %3
 [Ed]2 [Ec]>[D=B] [Ec]4 | [FA]2 [FA]>[FG] [FA]2 [FA]>[FA] | [Fc]2 [F=B]>[Fc] [FA]3 z | %6
 [Fd]2 [Fd]>[Fd] [Fc]2 F>[FA] | [EG]2 [EA]>[EG] F4 | [Fc]2 [Fc]>[Fc] [Fc]2 [FA]>[FA] | %9
 [GB]2 [FA]>[EG] [FA]4 | [EG]2 [EG]>[FA] [GB]2 [FA]>[EG] | [FA]2 [FA]>[GB] [Ac]4 | %12
 [Fc]2 [Fc]>[Fc] [Fc]2 [FA]>[FA] | [GB]2 [FA]>[EG] [FA]4 | [Fd]2 [Fd]>[Fd] [Fc]2 F>[FA] | %15
 [EG]2 [FA]>[EG] F4 |] %16
V:2
 x8 | x8 | x8 | x8 | x8 | x8 | x6 F3/2 x/ | x4 F4 | x8 | x8 | x8 | x8 | x8 | x8 | x6 F3/2 x/ | %15
 x4 F4 |] %16
V:3
 [F,C]2 [F,C]>[F,=B,] [F,C]2 [F,C]>[F,C] | [F,A,]2 [F,^G,]>[F,A,] [F,C]3 z | %2
 [E,C]2 [E,C]>[F,C] [C,C]2 [F,C]>[F,A,] | G,2 [G,,G,]>[G,,G,] [C,G,]4 | %4
 [F,C]2 [F,C]>[F,=B,] [F,C]2 [F,C]>[F,C] | [F,A,]2 [F,^G,]>[F,A,] [F,C]3 z | %6
 [B,,B,]2 [B,,B,]>[D,B,] [F,A,]2 [F,A,]>[F,C] | [C,C]2 [C,C]>[C,B,] [F,A,]4 | %8
 [F,A,]2 [F,A,]>[F,A,] [F,A,]2 [F,A,]>[F,A,] | [C,C]2 [C,C]>[C,C] [F,C]4 | %10
 [C,C]2 [C,C]>[C,C] [C,C]2 [C,C]>[C,C] | [F,C]2 [F,C]>[F,C] [F,C]4 | %12
 [F,A,]2 [F,A,]>[F,A,] [F,A,]2 [F,C]>[F,C] | [C,C]2 [C,C]>[C,C] [F,C]4 | %14
 [B,,B,]2 [B,,B,]>[B,,B,] [F,A,]2 [F,A,]>[F,C] | [C,C]2 [C,C]>[C,B,] [F,A,]4 |] %16
V:4
 x8 | x8 | x8 | G,2 x6 | x8 | x8 | x8 | x8 | x8 | x8 | x8 | x8 | x8 | x8 | x8 | x8 |] %16

